src/Resource_Files/fluent/format-direction-default.svg

<svg clip-rule="evenodd" fill-rule="evenodd" stroke-linejoin="round" stroke-miterlimit="2" viewBox="0 0 16 16" xmlns="http://www.w3.org/2000/svg"><g fill="#1abc9c"><path d="m14.752 9.189c-.31.276-.338.75-.062 1.059l.89 1.002h-2.83c-.414 0-.75.336-.75.75s.336.75.75.75h2.83l-.89 1.002c-.276.309-.248.783.062 1.059.309.275.783.247 1.059-.063l2-2.25c.252-.284.252-.712 0-.996l-2-2.25c-.276-.31-.75-.338-1.059-.063z" fill-rule="nonzero" transform="matrix(.791517 0 0 .791517 -.24734 -1.49822)"/><path d="m14.752 9.189c-.31.276-.338.75-.062 1.059l.89 1.002h-2.83c-.414 0-.75.336-.75.75s.336.75.75.75h2.83l-.89 1.002c-.276.309-.248.783.062 1.059.309.275.783.247 1.059-.063l2-2.25c.252-.284.252-.712 0-.996l-2-2.25c-.276-.31-.75-.338-1.059-.063z" fill-rule="nonzero" transform="matrix(-.791517 0 0 .791517 15.2473 -1.49822)"/><path d="m20.487 7.33c1.766.064 3.069.089 4.031.215.465.061.804.049.997.265.143.16.156.407.201.725.061.439.088.965.101 1.595.018.801-.015 42.088 0 42.913.011.606.001 1.117-.053 1.546-.038.311-.054.556-.199.716-.207.229-.567.232-1.052.292-.966.119-2.256.12-3.969.126-.956.003-1.73.782-1.727 1.738s.782 1.73 1.738 1.727c2.316-.008 3.946-.035 5.081-.263 1.15-.231 1.933-.671 2.498-1.295.787-.869 1.191-2.264 1.148-4.649-.015-.826.017-42.125 0-42.927-.052-2.377-.44-3.723-1.184-4.554-.549-.615-1.309-1.046-2.449-1.279-1.099-.224-2.7-.27-5.037-.354-.955-.035-1.759.713-1.794 1.668-.034.956.713 1.76 1.669 1.795z" transform="matrix(-.286525 0 0 .289214 15.3915 -1.11796)"/><path d="m20.487 7.33c1.766.064 3.069.089 4.031.215.465.061.804.049.997.265.143.16.156.407.201.725.061.439.088.965.101 1.595.018.801-.015 42.088 0 42.913.011.606.001 1.117-.053 1.546-.038.311-.054.556-.199.716-.207.229-.567.232-1.052.292-.966.119-2.256.12-3.969.126-.956.003-1.73.782-1.727 1.738s.782 1.73 1.738 1.727c2.316-.008 3.946-.035 5.081-.263 1.15-.231 1.933-.671 2.498-1.295.787-.869 1.191-2.264 1.148-4.649-.015-.826.017-42.125 0-42.927-.052-2.377-.44-3.723-1.184-4.554-.549-.615-1.309-1.046-2.449-1.279-1.099-.224-2.7-.27-5.037-.354-.955-.035-1.759.713-1.794 1.668-.034.956.713 1.76 1.669 1.795z" transform="matrix(.286525 0 0 .289214 -.391545 -1.11796)"/></g></svg>

<?xml version="1.0" encoding="UTF-8" standalone="no"?>
<!DOCTYPE svg PUBLIC "-//W3C//DTD SVG 1.1//EN" "http://www.w3.org/Graphics/SVG/1.1/DTD/svg11.dtd">
<svg width="100%" height="100%" viewBox="0 0 16 16" version="1.1" xmlns="http://www.w3.org/2000/svg" xmlns:xlink="http://www.w3.org/1999/xlink" xml:space="preserve" xmlns:serif="http://www.serif.com/" style="fill-rule:evenodd;clip-rule:evenodd;stroke-linejoin:round;stroke-miterlimit:2;">
    <g transform="matrix(0.791517,0,0,0.791517,-0.24734,-1.49822)">
        <path d="M14.752,9.189C14.442,9.465 14.414,9.939 14.69,10.248L15.58,11.25L12.75,11.25C12.336,11.25 12,11.586 12,12C12,12.414 12.336,12.75 12.75,12.75L15.58,12.75L14.69,13.752C14.414,14.061 14.442,14.535 14.752,14.811C15.061,15.086 15.535,15.058 15.811,14.748L17.811,12.498C18.063,12.214 18.063,11.786 17.811,11.502L15.811,9.252C15.535,8.942 15.061,8.914 14.752,9.189Z" style="fill:rgb(26,188,156);fill-rule:nonzero;"/>
    </g>
    <g transform="matrix(-0.791517,0,0,0.791517,15.2473,-1.49822)">
        <path d="M14.752,9.189C14.442,9.465 14.414,9.939 14.69,10.248L15.58,11.25L12.75,11.25C12.336,11.25 12,11.586 12,12C12,12.414 12.336,12.75 12.75,12.75L15.58,12.75L14.69,13.752C14.414,14.061 14.442,14.535 14.752,14.811C15.061,15.086 15.535,15.058 15.811,14.748L17.811,12.498C18.063,12.214 18.063,11.786 17.811,11.502L15.811,9.252C15.535,8.942 15.061,8.914 14.752,9.189Z" style="fill:rgb(26,188,156);fill-rule:nonzero;"/>
    </g>
    <g transform="matrix(-0.286525,0,0,0.289214,15.3915,-1.11796)">
        <path d="M20.487,7.33C22.253,7.394 23.556,7.419 24.518,7.545C24.983,7.606 25.322,7.594 25.515,7.81C25.658,7.97 25.671,8.217 25.716,8.535C25.777,8.974 25.804,9.5 25.817,10.13C25.835,10.931 25.802,52.218 25.817,53.043C25.828,53.649 25.818,54.16 25.764,54.589C25.726,54.9 25.71,55.145 25.565,55.305C25.358,55.534 24.998,55.537 24.513,55.597C23.547,55.716 22.257,55.717 20.544,55.723C19.588,55.726 18.814,56.505 18.817,57.461C18.82,58.417 19.599,59.191 20.555,59.188C22.871,59.18 24.501,59.153 25.636,58.925C26.786,58.694 27.569,58.254 28.134,57.63C28.921,56.761 29.325,55.366 29.282,52.981C29.267,52.155 29.299,10.856 29.282,10.054C29.23,7.677 28.842,6.331 28.098,5.5C27.549,4.885 26.789,4.454 25.649,4.221C24.55,3.997 22.949,3.951 20.612,3.867C19.657,3.832 18.853,4.58 18.818,5.535C18.784,6.491 19.531,7.295 20.487,7.33Z" style="fill:rgb(26,188,156);"/>
    </g>
    <g transform="matrix(0.286525,0,0,0.289214,-0.391545,-1.11796)">
        <path d="M20.487,7.33C22.253,7.394 23.556,7.419 24.518,7.545C24.983,7.606 25.322,7.594 25.515,7.81C25.658,7.97 25.671,8.217 25.716,8.535C25.777,8.974 25.804,9.5 25.817,10.13C25.835,10.931 25.802,52.218 25.817,53.043C25.828,53.649 25.818,54.16 25.764,54.589C25.726,54.9 25.71,55.145 25.565,55.305C25.358,55.534 24.998,55.537 24.513,55.597C23.547,55.716 22.257,55.717 20.544,55.723C19.588,55.726 18.814,56.505 18.817,57.461C18.82,58.417 19.599,59.191 20.555,59.188C22.871,59.18 24.501,59.153 25.636,58.925C26.786,58.694 27.569,58.254 28.134,57.63C28.921,56.761 29.325,55.366 29.282,52.981C29.267,52.155 29.299,10.856 29.282,10.054C29.23,7.677 28.842,6.331 28.098,5.5C27.549,4.885 26.789,4.454 25.649,4.221C24.55,3.997 22.949,3.951 20.612,3.867C19.657,3.832 18.853,4.58 18.818,5.535C18.784,6.491 19.531,7.295 20.487,7.33Z" style="fill:rgb(26,188,156);"/>
    </g>
</svg>
